web-app/packages/lib/src/assets/trash.svg

<svg width="124" height="101" viewBox="0 0 124 101" fill="none" xmlns="http://www.w3.org/2000/svg">
<path d="M67.2 100.8C93.7088 100.8 115.2 79.3512 115.2 52.8003C115.2 26.2484 93.6142 4.7998 67.2 4.7998C40.6911 4.7998 19.2 26.2484 19.2 52.8003C19.2 79.3512 40.6911 100.8 67.2 100.8Z" fill="#F0C4BC"/>
<path d="M79.2276 71.7083C78.1765 71.0394 76.3609 72.0906 75.3097 74.0017C74.2586 75.9129 74.2586 77.9196 75.3097 78.4929L74.2586 77.9196C73.2074 77.2507 73.2074 75.244 74.2586 73.4284C75.3097 71.5172 77.1253 70.5616 78.1765 71.135L79.2276 71.7083Z" fill="#131528"/>
<path d="M79.228 71.7082C80.2791 72.3771 80.2791 74.3838 79.228 76.1994C78.1768 78.1106 76.3612 79.0662 75.3101 78.4928C74.2589 77.8239 74.2589 75.8172 75.3101 74.0016C76.3612 72.0905 78.0813 71.1349 79.228 71.7082Z" fill="#101224"/>
<path d="M79.1325 73.2365C78.4636 72.8543 77.3169 73.5232 76.5525 74.6699C75.8836 75.9122 75.8836 77.1544 76.5525 77.6322L76.0747 77.3455C75.4058 76.9633 75.4058 75.6255 76.0747 74.3832C76.7436 73.141 77.8903 72.4721 78.6548 72.9499L79.1325 73.2365Z" fill="#322B4E"/>
<path d="M79.1328 73.2369C79.8017 73.6191 79.8017 74.9569 79.1328 76.1992C78.4639 77.4414 77.3172 78.1103 76.5527 77.6326C75.8838 77.2503 75.8838 75.9125 76.5527 74.6703C77.3172 73.5236 78.4639 72.8547 79.1328 73.2369Z" fill="#201B3C"/>
<path d="M73.9715 76.8682L62.1223 83.6528L43.2974 72.7592L55.1466 65.9746L73.9715 76.8682Z" fill="#293773"/>
<path d="M62.1223 83.6534V84.8001L43.2974 73.9065V72.7598L62.1223 83.6534Z" fill="#4A692B"/>
<path d="M73.972 76.8682V77.9193L62.1228 84.7995V83.6528L73.972 76.8682Z" fill="#405224"/>
<path d="M56.7712 47.5313L59.5424 82.1233C59.5424 82.9833 59.8291 83.5567 60.3069 83.8434L41.4819 72.9497C41.0042 72.6631 40.7175 72.0897 40.7175 71.2297L37.9463 36.6377L56.7712 47.5313Z" fill="#73D19C"/>
<path d="M78.654 34.8223L77.5073 70.7521C75.3095 71.9943 73.8761 74.3833 73.7806 76.9634L62.218 83.5569C61.4536 84.0347 60.7847 84.0347 60.3069 83.748C59.8291 83.4613 59.5424 82.888 59.5424 82.0279L56.7712 46.767L78.654 34.8223Z" fill="#64B888"/>
<path d="M36.8003 36.9255C36.8003 37.3078 36.9914 37.5944 37.4692 37.8811L54.5741 47.8191C55.4341 48.2969 56.8675 48.2969 57.8231 47.8191L78.7503 35.7788C79.2281 35.4921 79.4192 35.2055 79.4192 34.8232V36.7344C79.4192 37.1166 79.2281 37.4033 78.7503 37.69L57.8231 49.7303C56.963 50.2081 55.5297 50.2081 54.5741 49.7303L37.4692 39.7923C36.9914 39.5056 36.8003 39.2189 36.8003 38.8367V36.9255Z" fill="#64B888"/>
<path d="M36.8003 36.9255C36.8003 36.5433 36.9914 36.2566 37.4692 35.9699L58.3964 23.9296C59.2564 23.4518 60.6898 23.4518 61.6454 23.9296L78.7503 33.8677C79.2281 34.1543 79.4192 34.441 79.4192 34.8232C79.4192 35.2055 79.2281 35.4922 78.7503 35.7788L57.8231 47.8191C56.963 48.2969 55.5297 48.2969 54.5741 47.8191L37.4692 37.8811C36.9914 37.5944 36.8003 37.3078 36.8003 36.9255Z" fill="#004C45"/>
<path d="M75.6924 35.1097L56.7719 46.0033C56.6763 46.0033 56.4852 46.0988 56.1985 46.0988C55.9119 46.0988 55.6252 46.0033 55.6252 46.0033L40.527 37.3075C40.2403 37.2119 40.2403 36.8297 40.527 36.6386L59.4475 25.745C59.5431 25.745 59.7342 25.6494 60.0209 25.6494C60.1164 25.6494 60.212 25.6494 60.3075 25.6494C60.4031 25.6494 60.4986 25.745 60.5942 25.745L75.6924 34.4408C75.979 34.6319 75.979 34.9185 75.6924 35.1097Z" fill="#203565"/>
<path d="M36.8003 34.1539C36.8003 34.5361 36.9914 34.8228 37.4692 35.1095L54.5741 45.0475C55.4341 45.5253 56.8675 45.5253 57.8231 45.0475L78.7503 32.9116C79.2281 32.625 79.4192 32.3383 79.4192 31.9561V33.9628C79.4192 34.345 79.2281 34.6317 78.7503 34.9184L57.8231 46.9587C56.963 47.4365 55.5297 47.4365 54.5741 46.9587L37.4692 37.0206C36.9914 36.734 36.8003 36.4473 36.8003 36.065V34.1539Z" fill="#64B888"/>
<path d="M36.8 34.154C36.8 33.7718 36.9912 33.4851 37.469 33.1985L58.3962 21.1581C59.2562 20.6804 60.6896 20.6804 61.6451 21.1581L78.75 31.0962C79.2278 31.3829 79.4189 31.6695 79.4189 32.0518C79.4189 32.434 79.2278 32.7207 78.75 33.0073L57.8228 45.0477C56.9628 45.5254 55.5294 45.5254 54.5738 45.0477L37.469 35.1096C36.9912 34.8229 36.8 34.5363 36.8 34.154Z" fill="#73D19C"/>
<path d="M44.1577 31.9558C44.1577 32.1469 44.3488 32.4336 44.6355 32.5292L55.8158 39.0271C56.3892 39.4094 57.3447 39.4094 57.9181 39.0271L71.5829 31.0958C71.8696 30.9047 72.0607 30.7136 72.0607 30.5225V32.7203C72.0607 32.9114 71.8696 33.1981 71.5829 33.2936L57.9181 41.225C57.3447 41.6072 56.3892 41.6072 55.8158 41.225L44.6355 34.727C44.3488 34.5359 44.1577 34.3448 44.1577 34.1537V31.9558Z" fill="#64B888"/>
<path d="M44.1577 31.9564C44.1577 31.7653 44.3488 31.4786 44.6355 31.383L58.3003 23.4517C58.8736 23.0695 59.8292 23.0695 60.4026 23.4517L71.5829 29.9497C71.8696 30.1408 72.0607 30.3319 72.0607 30.523C72.0607 30.7141 71.8696 31.0008 71.5829 31.0964L57.9181 39.0277C57.3447 39.4099 56.3892 39.4099 55.8158 39.0277L44.6355 32.6253C44.3488 32.4342 44.1577 32.2431 44.1577 31.9564Z" fill="#73D19C"/>
<path d="M41.8652 32.5297V30.7141L47.2165 27.6562V29.4719L41.8652 32.5297Z" fill="#004C45"/>
<path d="M41.865 30.7146C41.3872 30.4279 41.0049 30.4279 40.7183 30.6191L46.0695 27.5612C46.3562 27.3701 46.7384 27.4656 47.2162 27.6568L41.865 30.7146Z" fill="#9CF9C5"/>
<path d="M41.8651 32.53L40.3362 31.67C40.3362 31.1922 40.5273 30.8099 40.814 30.6188C41.1006 30.4277 41.4829 30.5233 41.9607 30.7144V32.53H41.8651Z" fill="#004C45"/>
<path d="M60.5949 43.3272C60.5949 43.3272 59.9259 41.1294 59.0659 40.6516L64.4172 37.5938C65.2772 38.0715 65.9461 40.2694 65.9461 40.2694L60.5949 43.3272Z" fill="#9CF9C5"/>
<path d="M61.0729 42.754C60.8817 42.2762 60.7862 41.9895 60.4995 41.4162L64.7996 38.9316C64.9907 39.4094 65.0863 39.6005 65.373 40.2695L61.0729 42.754Z" fill="#004C45"/>
<path d="M60.5944 43.327L59.0654 42.467V40.6514C59.9255 41.1292 60.5944 43.327 60.5944 43.327Z" fill="#64B888"/>
<path d="M114.4 20.7998C116.609 20.7998 118.4 19.0096 118.4 16.7998C118.4 14.591 116.609 12.7998 114.4 12.7998C112.191 12.7998 110.4 14.591 110.4 16.7998C110.4 19.0096 112.191 20.7998 114.4 20.7998Z" fill="#F0C4BC"/>
<path d="M120.8 4.8C122.126 4.8 123.2 3.72516 123.2 2.40003C123.2 1.07403 122.126 0 120.8 0C119.475 0 118.4 1.07403 118.4 2.40003C118.4 3.72516 119.475 4.8 120.8 4.8Z" fill="#F0C4BC"/>
<path d="M28.0001 10.3996C29.3261 10.3996 30.4001 9.32562 30.4001 7.99961C30.4001 6.67446 29.3261 5.59961 28.0001 5.59961C26.675 5.59961 25.6001 6.67446 25.6001 7.99961C25.6001 9.32562 26.675 10.3996 28.0001 10.3996Z" fill="#F0C4BC"/>
<path d="M4.8 68.8002C7.45108 68.8002 9.6 66.6494 9.6 64.0002C9.6 61.351 7.45108 59.2002 4.8 59.2002C2.14892 59.2002 0 61.351 0 64.0002C0 66.6494 2.14892 68.8002 4.8 68.8002Z" fill="#F0C4BC"/>
<circle cx="87.2" cy="71.2" r="15.2" fill="#5A2740"/>
<path d="M87.2003 77.5994C88.084 77.5994 88.8003 76.8831 88.8003 75.9994C88.8003 75.1158 88.084 74.3994 87.2003 74.3994C86.3167 74.3994 85.6003 75.1158 85.6003 75.9994C85.6003 76.8831 86.3167 77.5994 87.2003 77.5994Z" fill="white"/>
<path d="M87.2007 73.3331C87.4836 73.3331 87.7549 73.2208 87.9549 73.0207C88.155 72.8207 88.2674 72.5494 88.2674 72.2665V65.8665C88.2674 65.5836 88.155 65.3123 87.9549 65.1122C87.7549 64.9122 87.4836 64.7998 87.2007 64.7998C86.9178 64.7998 86.6465 64.9122 86.4465 65.1122C86.2464 65.3123 86.134 65.5836 86.134 65.8665V72.2665C86.134 72.5494 86.2464 72.8207 86.4465 73.0207C86.6465 73.2208 86.9178 73.3331 87.2007 73.3331Z" fill="white"/>
</svg>

<svg xmlns="http://www.w3.org/2000/svg" width="124" height="101" fill="none" xmlns:v="https://vecta.io/nano"><path d="M67.2 100.8c26.509 0 48-21.449 48-48s-21.586-48-48-48c-26.509 0-48 21.449-48 48.001s21.491 48 48 48z" fill="#f0c4bc"/><path d="M79.228 71.708c-1.051-.669-2.867.382-3.918 2.293s-1.051 3.918 0 4.491l-1.051-.573c-1.051-.669-1.051-2.676 0-4.491 1.051-1.911 2.867-2.867 3.918-2.293l1.051.573z" fill="#131528"/><path d="M79.228 71.708c1.051.669 1.051 2.676 0 4.491-1.051 1.911-2.867 2.867-3.918 2.293-1.051-.669-1.051-2.676 0-4.491 1.051-1.911 2.771-2.867 3.918-2.293z" fill="#101224"/><path d="M79.133 73.237c-.669-.382-1.816.287-2.58 1.433-.669 1.242-.669 2.484 0 2.962l-.478-.287c-.669-.382-.669-1.72 0-2.962s1.816-1.911 2.58-1.433l.478.287z" fill="#322b4e"/><path d="M79.133 73.237c.669.382.669 1.72 0 2.962s-1.816 1.911-2.58 1.433c-.669-.382-.669-1.72 0-2.962.764-1.147 1.911-1.816 2.58-1.433z" fill="#201b3c"/><path d="M73.972 76.868l-11.849 6.785-18.825-10.894 11.849-6.785 18.825 10.894z" fill="#293773"/><path d="M62.122 83.653V84.8L43.297 73.907V72.76l18.825 10.894z" fill="#4a692b"/><path d="M73.972 76.868v1.051L62.123 84.8v-1.147l11.849-6.785z" fill="#405224"/><path d="M56.771 47.531l2.771 34.592c0 .86.287 1.433.764 1.72L41.482 72.95c-.478-.287-.764-.86-.764-1.72l-2.771-34.592 18.825 10.894z" fill="#73d19c"/><g fill="#64b888"><path d="M78.654 34.822l-1.147 35.93c-2.198 1.242-3.631 3.631-3.727 6.211l-11.563 6.594c-.764.478-1.433.478-1.911.191s-.764-.86-.764-1.72l-2.771-35.261 21.883-11.945z"/><path d="M36.8 36.926c0 .382.191.669.669.956l17.105 9.938c.86.478 2.293.478 3.249 0l20.927-12.04c.478-.287.669-.573.669-.956v1.911c0 .382-.191.669-.669.956L57.823 49.73c-.86.478-2.293.478-3.249 0l-17.105-9.938c-.478-.287-.669-.573-.669-.956v-1.911z"/></g><path d="M36.8 36.926c0-.382.191-.669.669-.956l20.927-12.04c.86-.478 2.293-.478 3.249 0l17.105 9.938c.478.287.669.573.669.956s-.191.669-.669.956l-20.927 12.04c-.86.478-2.293.478-3.249 0l-17.105-9.938c-.478-.287-.669-.573-.669-.956z" fill="#004c45"/><path d="M75.692 35.11L56.772 46.003c-.096 0-.287.095-.573.095s-.573-.095-.573-.095l-15.098-8.696c-.287-.096-.287-.478 0-.669l18.92-10.894c.096 0 .287-.096.573-.096h.287c.096 0 .191.096.287.096l15.098 8.696c.287.191.287.478 0 .669z" fill="#203565"/><path d="M36.8 34.154c0 .382.191.669.669.956l17.105 9.938c.86.478 2.293.478 3.249 0L78.75 32.912c.478-.287.669-.573.669-.956v2.007c0 .382-.191.669-.669.956l-20.927 12.04c-.86.478-2.293.478-3.249 0l-17.105-9.938c-.478-.287-.669-.573-.669-.956v-1.911z" fill="#64b888"/><path d="M36.8 34.154c0-.382.191-.669.669-.956l20.927-12.04c.86-.478 2.293-.478 3.249 0l17.105 9.938c.478.287.669.573.669.956s-.191.669-.669.956l-20.927 12.04c-.86.478-2.293.478-3.249 0L37.469 35.11c-.478-.287-.669-.573-.669-.956z" fill="#73d19c"/><path d="M44.158 31.956c0 .191.191.478.478.573l11.18 6.498c.573.382 1.529.382 2.102 0l13.665-7.931c.287-.191.478-.382.478-.573v2.198c0 .191-.191.478-.478.573l-13.665 7.931c-.573.382-1.529.382-2.102 0l-11.18-6.498c-.287-.191-.478-.382-.478-.573v-2.198z" fill="#64b888"/><path d="M44.158 31.956c0-.191.191-.478.478-.573L58.3 23.452c.573-.382 1.529-.382 2.102 0l11.18 6.498c.287.191.478.382.478.573s-.191.478-.478.573l-13.665 7.931c-.573.382-1.529.382-2.102 0l-11.18-6.402c-.287-.191-.478-.382-.478-.669z" fill="#73d19c"/><path d="M41.865 32.53v-1.816l5.351-3.058v1.816l-5.351 3.058z" fill="#004c45"/><path d="M41.865 30.715c-.478-.287-.86-.287-1.147-.096l5.351-3.058c.287-.191.669-.096 1.147.096l-5.351 3.058z" fill="#9cf9c5"/><path d="M41.865 32.53l-1.529-.86c0-.478.191-.86.478-1.051s.669-.096 1.147.096v1.816h-.096z" fill="#004c45"/><path d="M60.595 43.327s-.669-2.198-1.529-2.676l5.351-3.058c.86.478 1.529 2.676 1.529 2.676l-5.351 3.058z" fill="#9cf9c5"/><path d="M61.073 42.754l-.573-1.338 4.3-2.485.573 1.338-4.3 2.484z" fill="#004c45"/><path d="M60.594 43.327l-1.529-.86v-1.816c.86.478 1.529 2.676 1.529 2.676z" fill="#64b888"/><path d="M114.4 20.8a4 4 0 1 0 0-8 4 4 0 1 0 0 8zm6.4-16a2.4 2.4 0 1 0 0-4.8 2.4 2.4 0 1 0 0 4.8zM28 10.4a2.4 2.4 0 0 0 0-4.8 2.4 2.4 0 0 0 0 4.8zM4.8 68.8a4.8 4.8 0 1 0 0-9.6 4.8 4.8 0 1 0 0 9.6z" fill="#f0c4bc"/><circle cx="87.2" cy="71.2" r="15.2" fill="#5a2740"/><path d="M87.2 77.599a1.6 1.6 0 1 0 0-3.2 1.6 1.6 0 1 0 0 3.2zm.001-4.266c.283 0 .554-.112.754-.312s.313-.471.313-.754v-6.4c0-.283-.112-.554-.312-.754s-.471-.312-.754-.312-.554.112-.754.312-.312.471-.312.754v6.4a1.06 1.06 0 0 0 .313.754c.201.2.471.312.754.312z" fill="#fff"/></svg>
